X:1
T:Title
%%score ( 1 2 ) ( 3 4 )
L:1/8
Q:1/4=120
M:6/4
K:Bb
V:1 treble nm="Strings 1, Soprano"
V:2 treble 
V:3 bass nm="Strings 1, Bass"
V:4 bass 
V:1
 z6 z4 [DF]2 | [DF]4 [DF]2 [DF]4 [DF]2 | [EG]4 [EG]2 [EG]4 [EG]2 | [DF]4 [DF]2 [DB]4 [FB]2 | %4
 [Fc]6- [Fc]4 [DF]2 | [DF]4 [EF]2 F2 E2 [DF]2 | [EG]4 [EG]2 [EG]4 [EG]2 | F4 [DB]2 [DB]4 [Ec]2 | %8
 [DB]6- [DB]4 F2 | [Fc]4 [Fc]2 c2 B2 [Fc]2 | [Fd]4 [Ec]2 [DB]4 F2 | [Fc]4 [Fc]2 [Ec]2 [DB]2 [Fc]2 | %12
 [Fd]6- [Fd]4 [DF]2 | [DF]4 [EF]2 F2 E2 [DF]2 | [EG]4 [EG]2 [EG]4 [EG]2 | F4 [DB]2 [DB]4 [Ec]2 | %16
 [DB]12 |] %17
V:2
 x12 | x12 | x12 | x12 | x12 | x12 | x12 | x12 | x12 | z6 .F6 | x12 | x12 | x12 | x12 | x12 | x12 | %16
 x12 |] %17
V:3
 z6 z4 [B,,B,]2 | [B,,B,]4 [B,,B,]2 [B,,B,]4 [B,,B,]2 | [E,B,]4 [E,B,]2 [E,B,]4 [E,B,]2 | %3
w: 1.~I~|love~ the~ Christ,~ the~|Son~ of~ God,~ Who~|
 [B,,B,]4 [B,,B,]2 [B,,F,]4 [D,B,]2 | [F,A,]6- [F,A,]4 [B,,B,]2 | z6 .B,6 | %6
w: died~ that~ I~ might~|live;~ * I~|grat|
 [E,B,]4 [E,B,]2 [E,B,]4 [E,B,]2 | [D,B,]4 [G,B,]2 [F,B,]4 [F,A,]2 | [B,,B,]6- [B,,B,]4 [F,A,]2 | %9
w: tude~ ex press,~ A~|gift~ un to~ Him~|give.~ * *|
 z6 .A,6 | [B,,B,]4 [B,,F,]2 [B,,F,]4 [F,A,]2 | z6 .A,6 | B,6- B,4 [B,,B,]2 | z6 .B,6 | %14
w: |||||
 [E,B,]4 [E,B,]2 [E,B,]4 [E,B,]2 | [D,B,]4 [G,B,]2 [F,B,]4 [F,A,]2 | [B,,B,]12 |] %17
w: |||
V:4
 x12 | x12 | x12 | x12 | x12 | [B,,B,]4 [C,A,]2 D,2 C,2 [B,,B,]2 | x12 | x12 | x12 | %9
w: |||||* my~ * * i||||
 [F,A,]4 [F,A,]2 F,2- [F,G,]2 [F,A,]2 | x12 | [F,A,]4 [F,A,]2 F,2- [F,B,]2 [F,A,]2 | x12 | %13
w: ||||
 [B,,B,]4 [C,A,]2 D,2 C,2 [B,,B,]2 | x12 | x12 | x12 |] %17
w: ||||

